X: 4
T: Castle Kelly
R: reel
M: 4/4
L: 1/8
K: Amin
(EG)||(A2c)(A2 B)cA|GcEG- G2EG|(A2c)A GAc(d|1 "4"e)(cd)(B cA)AG:|2 "4"e)(cd)(B cA)A2|||:(ag)ec dfe(d|cA)GE (EG2)g|agec (cd)cd|uea{b}ag (ga)ba|vgedc dfe(d|cA)GE (EG)EG|uA2cA GAc(d|1 "4"e)(cd)(B cA)A2:|2 "4"e)(cd)(B cA)AG||


Tune 21	Setting 27917

